public/resend-icon-black.svg

<svg height="1800" width="1800" xmlns="http://www.w3.org/2000/svg"><path d="m0 0c66.86021044-.06039235 66.86021044-.06039235 87.55950928-.07695007.73821818-.000592 1.47643636-.00118401 2.23702479-.00179395 24.87269074-.01989215 49.74538231-.03563707 74.61807775-.0482854.81237244-.00041417 1.62474487-.00082834 2.46173466-.00125506 17.6591193-.00898073 35.31823885-.01729099 52.97735879-.02491151 8.66123242-.00374169 17.32246476-.0076314 25.98369707-.01159893.86185267-.00039228 1.72370534-.00078456 2.61167475-.00118872 27.88684363-.01276213 55.77366892-.0352796 83.66050146-.06290802 28.6803334-.02836266 57.36065666-.04677967 86.04100385-.05285331 4.05982431-.00086434 8.11964858-.00184125 12.17947284-.00288676.79895628-.00020227 1.59791256-.00040454 2.42107965-.00061294 12.81130483-.00353191 25.62257813-.01741011 38.43387016-.03525143 12.90976157-.01775424 25.81949217-.02438487 38.7292655-.02000803 6.98257112.00206738 13.96505857-.00051373 20.94761261-.01711229 6.41261211-.01476024 12.82507196-.01523304 19.23769155-.00508026 2.30062063.001252 4.60125136-.00241566 6.90185255-.01195287 21.52516332-.08392904 43.00418791 1.68960768 64.18607274 5.62464955 1.13888672.20834473 2.27777344.41668945 3.45117188.63134766 26.14821825 4.98870959 51.40951695 13.56513347 75.36132812 25.11865234 1.0837793.52134521 1.0837793.52134521 2.18945312 1.05322266 16.76103673 8.18246162 32.83458015 18.57615814 46.81054688 30.94677734.763125.65484375 1.52625 1.3096875 2.3125 1.984375 18.10453171 15.84146525 33.30544784 33.38454864 45.6875 54.015625.3707666.61133789.7415332 1.22267578 1.12353516 1.85253906 32.49851893 54.0303455 38.03230494 121.59141105 23.87646484 182.14746094-6.52938796 25.93123447-17.40259649 51.20595363-33 73-.68578125.96035156-1.3715625 1.92070313-2.078125 2.91015625-12.31360195 16.80939546-26.35083925 32.38909018-42.921875 45.08984375-.53254395.41427246-1.06508789.82854492-1.61376953 1.25537109-44.62160716 34.56351045-100.53853489 52.30241725-156.38623047 56.74462891-.93804977.08009811-1.87609955.16019623-2.84257507.24272156-12.26064976.94005396-24.51839224.98252585-36.80976868 1.07368469-2.35511096.02061365-4.71021859.04161113-7.06532288.06297302-6.14993056.0547658-12.29989194.10437255-18.44987487.15284729-6.29509165.05055071-12.59013945.10606019-18.88519288.16113282-12.3157176.10702372-24.63147354.20858869-36.94726562.30664062.48323227.4529393.96646454.9058786 1.46434021 1.37254333 2.21988399 2.08182264 4.43832671 4.16517512 6.65675354 6.24855042.76002319.71232788 1.52004639 1.42465576 2.30310059 2.15856934 4.28565206 4.02696544 8.50603862 8.09858686 12.63830566 12.28283691 2.83540401 2.86936095 5.67484636 5.63999565 8.75 8.25 3.94151502 3.35638289 7.54888008 7.01067934 11.1875 10.6875 4.16646205 4.21011278 8.3528541 8.27241218 12.87890625 12.09765625 3.59923741 3.22804534 6.94777586 6.71008085 10.34619141 10.14697266 2.82246624 2.84209509 5.65073966 5.60527231 8.71240234 8.19287109 3.90519979 3.30822658 7.46530926 6.92763741 11.0625 10.5625 5.34465194 5.41494868 5.34465194 5.41494868 11 10.5 4.55858949 3.85122216 8.67102171 8.14663131 12.86499023 12.38452148 3.54958795 3.57246085 7.16658856 6.96152253 11.01391602 10.21313477 3.59923741 3.22804534 6.94777586 6.71008085 10.34619141 10.14697266 2.82246624 2.84209509 5.65073966 5.60527231 8.71240234 8.19287109 3.90519979 3.30822658 7.46530926 6.92763741 11.0625 10.5625 5.34465194 5.41494868 5.34465194 5.41494868 11 10.5 4.55858949 3.85122216 8.67102171 8.14663131 12.86499023 12.38452148 3.54958795 3.57246085 7.16658856 6.96152253 11.01391602 10.21313477 3.59923741 3.22804534 6.94777586 6.71008085 10.34619141 10.14697266 2.82246624 2.84209509 5.65073966 5.60527231 8.71240234 8.19287109 3.90519979 3.30822658 7.46530926 6.92763741 11.0625 10.5625 5.34465194 5.41494868 5.34465194 5.41494868 11 10.5 4.55858949 3.85122216 8.67102171 8.14663131 12.86499023 12.38452148 3.54958795 3.57246085 7.16658856 6.96152253 11.01391602 10.21313477 3.59923741 3.22804534 6.94777586 6.71008085 10.34619141 10.14697266 2.82246624 2.84209509 5.65073966 5.60527231 8.71240234 8.19287109 3.90519979 3.30822658 7.46530926 6.92763741 11.0625 10.5625 5.34465194 5.41494868 5.34465194 5.41494868 11 10.5 4.55858949 3.85122216 8.67102171 8.14663131 12.86499023 12.38452148 3.54958795 3.57246085 7.16658856 6.96152253 11.01391602 10.21313477 3.59923741 3.22804534 6.94777586 6.71008085 10.34619141 10.14697266 2.82246624 2.84209509 5.65073966 5.60527231 8.71240234 8.19287109 3.90519979 3.30822658 7.46530926 6.92763741 11.0625 10.5625 5.34465194 5.41494868 5.34465194 5.41494868 11 10.5 4.55858949 3.85122216 8.67102171 8.14663131 12.86499023 12.38452148 3.54958795 3.57246085 7.16658856 6.96152253 11.01391602 10.21313477 3.59923741 3.22804534 6.94777586 6.71008085 10.34619141 10.14697266 2.82246624 2.84209509 5.65073966 5.60527231 8.71240234 8.19287109 4.57286851 3.87383129 8.7065766 8.18178393 12.91845703 12.43798828 3.62914924 3.65261989 7.32906663 7.13257951 11.25732422 10.46435547 3.80994812 3.35243882 7.43677925 6.93869373 10.88671875 10.66015625v1c-39.3559209.16022001-78.71179928.28356654-118.06798115.35745731-4.64628547.00875495-9.29257028.0178152-13.93885479.02706417-.92499209.00183618-1.84998419.00367235-2.80300635.00556417-14.97763715.03045972-29.95508624.08565197-44.93261182.14998392-15.36819555.06545947-30.73629259.10434163-46.10462183.11854989-9.48329139.00960521-18.96605123.03994206-28.44917899.09679581-6.50284884.03700041-13.00542286.04818582-19.50836933.03909437-3.7521494-.00448402-7.50336998.00239062-11.25535423.03992868-4.07033557.04042526-8.13869577.02647176-12.20918655.0073433-1.18289124.02038989-2.36578248.04077978-3.58451891.06178754-6.90968252-.08788488-10.65549936-1.09417808-15.53870869-6.10284078-.53051043-.59424036-1.06102086-1.18848073-1.60760736-1.80072838-1.03679123-1.02578462-2.07759953-2.04755054-3.125-3.0625-.96028808-.97724969-1.91861726-1.95642804-2.875-2.9375-3.24215227-3.28673187-6.47950983-6.50758336-10-9.5-3.52077694-2.9926604-6.7554753-6.2153265-10-9.5-3.22398087-3.26382615-6.43517847-6.46830141-9.9375-9.4375-4.3411307-3.68860166-8.28084341-7.75493757-12.28271484-11.80224609-3.43999004-3.46395514-6.9652346-6.73142775-10.68994141-9.88916016-3.3648045-3.01260066-6.49529563-6.25681417-9.66821289-9.46899414-2.72487165-2.74551788-5.47195411-5.39487437-8.42163086-7.90209961-4.0895362-3.47610577-7.8096054-7.28249656-11.578125-11.09765625-2.72495501-2.74559861-5.47210973-5.39504327-8.421875-7.90234375-4.0895362-3.47610577-7.8096054-7.28249656-11.578125-11.09765625-2.72495501-2.74559861-5.47210973-5.39504327-8.421875-7.90234375-4.0895362-3.47610577-7.8096054-7.28249656-11.578125-11.09765625-2.72495501-2.74559861-5.47210973-5.39504327-8.421875-7.90234375-3.52077694-2.9926604-6.7554753-6.2153265-10-9.5-3.22398087-3.26382615-6.43517847-6.46830141-9.9375-9.4375-4.3411307-3.68860166-8.28084341-7.75493757-12.28271484-11.80224609-3.43999004-3.46395514-6.9652346-6.73142775-10.68994141-9.88916016-3.3648045-3.01260066-6.49529563-6.25681417-9.66821289-9.46899414-2.72487165-2.74551788-5.47195411-5.39487437-8.42163086-7.90209961-4.0895362-3.47610577-7.8096054-7.28249656-11.578125-11.09765625-2.72495501-2.74559861-5.47210973-5.39504327-8.421875-7.90234375-4.0895362-3.47610577-7.8096054-7.28249656-11.578125-11.09765625-2.72495501-2.74559861-5.47210973-5.39504327-8.421875-7.90234375-4.0895362-3.47610577-7.8096054-7.28249656-11.578125-11.09765625-2.72495501-2.74559861-5.47210973-5.39504327-8.421875-7.90234375-3.52077694-2.9926604-6.7554753-6.2153265-10-9.5-3.22398087-3.26382615-6.43517847-6.46830141-9.9375-9.4375-4.3411307-3.68860166-8.28084341-7.75493757-12.28271484-11.80224609-3.43999004-3.46395514-6.9652346-6.73142775-10.68994141-9.88916016-3.36557439-3.01328997-6.49673983-6.25830365-9.67041016-9.47119141-2.70372108-2.72418444-5.4269309-5.35340428-8.35693359-7.83740234-21.8364109-18.79474867-38.44983955-42.6214604-40.875-72.0234375-.61281227-10.62958936 1.4386788-20.84690721 5.8125-30.5390625.59748047-1.33611328.59748047-1.33611328 1.20703125-2.69921875 9.76716717-19.73136654 29.382785-32.52653756 49.73736858-39.44676685 1.04809704-.34478913 1.04809704-.34478913 2.11736775-.6965437.76790517-.25371966 1.53581034-.50743932 2.32698536-.76884746 10.21926696-3.31064912 20.61170693-5.99264175 30.99796581-8.72065449 2.2484367-.59518241 4.4967294-1.19090905 6.74488831-1.78713989 4.7399328-1.25605619 9.48073154-2.50876507 14.22227478-3.75872803 7.3841329-1.9468878 14.76585454-3.90280371 22.14709472-5.86062622 8.5478423-2.26687956 17.09592864-4.53282828 25.64463616-6.79644299 16.74768898-4.43470865 33.49419983-8.87356403 50.22709846-13.36380481 2.54679084-.68311915 5.09457272-1.36210931 7.64300537-2.03912354 16.56150278-4.40032509 33.11719301-8.83328511 48.60928345-16.31210327 1.17973389-.56678467 1.17973389-.56678467 2.38330078-1.14501953 12.98958724-6.40938767 24.30151064-14.89117914 34.99169922-24.60498047.87269531-.78890625 1.74539063-1.5778125 2.64453125-2.390625 17.44467631-16.59304645 27.96084089-37.65078962 34.35546875-60.609375.19352051-.68932617.38704102-1.37865234.58642578-2.08886719 5.45172732-20.63012765 4.16038476-45.52577447-1.58642578-65.91113281-.18191895-.67369629-.36383789-1.34739258-.55126953-2.04150391-8.00779046-28.98977583-28.89142606-52.81077597-54.54199219-67.88378906-14.66019985-8.26302173-30.38454639-13.92695288-46.84423828-17.32470703-.72485596-.15114258-1.44971191-.30228516-2.1965332-.45800781-15.05622225-2.8715559-30.26357802-3.59026547-45.55119324-3.57046509-1.79831433-.00501837-3.59662641-.01089859-5.39493543-.01755273-4.8825641-.01562778-9.76507041-.01922105-14.6476565-.0206486-5.28739367-.00372454-10.57475672-.01889485-15.86213219-.03261471-9.14118307-.02218153-18.28235511-.03724933-27.42355919-.0473671-13.21634324-.01463872-26.43264804-.04018984-39.64896862-.06833128-21.44705103-.04537404-42.89410762-.08202749-64.34118374-.11313768-20.82325211-.03022411-41.64649065-.06459203-62.46972656-.10449219-1.28539035-.00246155-2.57078069-.00492309-3.89512225-.00745924-6.44897686-.01237535-12.89795356-.02483174-19.34693019-.0373284-53.42817021-.10342711-106.85634991-.19105929-160.28455889-.27259517 0-44.88 0-89.76 0-136z" transform="translate(450 450)"/></svg>

<?xml version="1.0" encoding="UTF-8"?>
<svg version="1.1" xmlns="http://www.w3.org/2000/svg" width="1800" height="1800">
<path d="M0 0 C66.86021044 -0.06039235 66.86021044 -0.06039235 87.55950928 -0.07695007 C88.29772746 -0.07754207 89.03594564 -0.07813408 89.79653407 -0.07874402 C114.66922481 -0.09863617 139.54191638 -0.11438109 164.41461182 -0.12702942 C165.22698426 -0.12744359 166.03935669 -0.12785776 166.87634648 -0.12828448 C184.53546578 -0.13726521 202.19458533 -0.14557547 219.85370527 -0.15319599 C228.51493769 -0.15693768 237.17617003 -0.16082739 245.83740234 -0.16479492 C246.69925501 -0.1651872 247.56110768 -0.16557948 248.44907709 -0.16598364 C276.33592072 -0.17874577 304.22274601 -0.20126324 332.10957855 -0.22889166 C360.78991195 -0.25725432 389.47023521 -0.27567133 418.1505824 -0.28174497 C422.21040671 -0.28260931 426.27023098 -0.28358622 430.33005524 -0.28463173 C431.12901152 -0.284834 431.9279678 -0.28503627 432.75113489 -0.28524467 C445.56243972 -0.28877658 458.37371302 -0.30265478 471.18500505 -0.3204961 C484.09476662 -0.33825034 497.00449722 -0.34488097 509.91427055 -0.34050413 C516.89684167 -0.33843675 523.87932912 -0.34101786 530.86188316 -0.35761642 C537.27449527 -0.37237666 543.68695512 -0.37284946 550.09957471 -0.36269668 C552.40019534 -0.36144468 554.70082607 -0.36511234 557.00142726 -0.37464955 C578.52659058 -0.45857859 600.00561517 1.31495813 621.1875 5.25 C622.32638672 5.45834473 623.46527344 5.66668945 624.63867188 5.88134766 C650.78689013 10.87005725 676.04818883 19.44648113 700 31 C701.0837793 31.52134521 701.0837793 31.52134521 702.18945312 32.05322266 C718.95048985 40.23568428 735.02403327 50.6293808 749 63 C749.763125 63.65484375 750.52625 64.3096875 751.3125 64.984375 C769.41703171 80.82584025 784.61794784 98.36892364 797 119 C797.3707666 119.61133789 797.7415332 120.22267578 798.12353516 120.85253906 C830.62205409 174.88288456 836.1558401 242.44395011 822 303 C815.47061204 328.93123447 804.59740351 354.20595363 789 376 C788.31421875 376.96035156 787.6284375 377.92070313 786.921875 378.91015625 C774.60827305 395.71955171 760.57103575 411.29924643 744 424 C743.46745605 424.41427246 742.93491211 424.82854492 742.38623047 425.25537109 C697.76462331 459.81888154 641.84769558 477.55778834 586 482 C585.06195023 482.08009811 584.12390045 482.16019623 583.15742493 482.24272156 C570.89677517 483.18277552 558.63903269 483.22524741 546.34765625 483.31640625 C543.99254529 483.3370199 541.63743766 483.35801738 539.28233337 483.37937927 C533.13240281 483.43414507 526.98244143 483.48375182 520.8324585 483.53222656 C514.53736685 483.58277727 508.24231905 483.63828675 501.94726562 483.69335938 C489.63154802 483.8003831 477.31579208 483.90194807 465 484 C465.48323227 484.4529393 465.96646454 484.9058786 466.46434021 485.37254333 C468.6842242 487.45436597 470.90266692 489.53771845 473.12109375 491.62109375 C473.88111694 492.33342163 474.64114014 493.04574951 475.42419434 493.77966309 C479.7098464 497.80662853 483.93023296 501.87824995 488.0625 506.0625 C490.89790401 508.93186095 493.73734636 511.70249565 496.8125 514.3125 C500.75401502 517.66888289 504.36138008 521.32317934 508 525 C512.16646205 529.21011278 516.3528541 533.27241218 520.87890625 537.09765625 C524.47814366 540.32570159 527.82668211 543.8077371 531.22509766 547.24462891 C534.0475639 550.086724 536.87583732 552.84990122 539.9375 555.4375 C543.84269979 558.74572658 547.40280926 562.36513741 551 566 C556.34465194 571.41494868 556.34465194 571.41494868 562 576.5 C566.55858949 580.35122216 570.67102171 584.64663131 574.86499023 588.88452148 C578.41457818 592.45698233 582.03157879 595.84604401 585.87890625 599.09765625 C589.47814366 602.32570159 592.82668211 605.8077371 596.22509766 609.24462891 C599.0475639 612.086724 601.87583732 614.84990122 604.9375 617.4375 C608.84269979 620.74572658 612.40280926 624.36513741 616 628 C621.34465194 633.41494868 621.34465194 633.41494868 627 638.5 C631.55858949 642.35122216 635.67102171 646.64663131 639.86499023 650.88452148 C643.41457818 654.45698233 647.03157879 657.84604401 650.87890625 661.09765625 C654.47814366 664.32570159 657.82668211 667.8077371 661.22509766 671.24462891 C664.0475639 674.086724 666.87583732 676.84990122 669.9375 679.4375 C673.84269979 682.74572658 677.40280926 686.36513741 681 690 C686.34465194 695.41494868 686.34465194 695.41494868 692 700.5 C696.55858949 704.35122216 700.67102171 708.64663131 704.86499023 712.88452148 C708.41457818 716.45698233 712.03157879 719.84604401 715.87890625 723.09765625 C719.47814366 726.32570159 722.82668211 729.8077371 726.22509766 733.24462891 C729.0475639 736.086724 731.87583732 738.84990122 734.9375 741.4375 C738.84269979 744.74572658 742.40280926 748.36513741 746 752 C751.34465194 757.41494868 751.34465194 757.41494868 757 762.5 C761.55858949 766.35122216 765.67102171 770.64663131 769.86499023 774.88452148 C773.41457818 778.45698233 777.03157879 781.84604401 780.87890625 785.09765625 C784.47814366 788.32570159 787.82668211 791.8077371 791.22509766 795.24462891 C794.0475639 798.086724 796.87583732 800.84990122 799.9375 803.4375 C803.84269979 806.74572658 807.40280926 810.36513741 811 814 C816.34465194 819.41494868 816.34465194 819.41494868 822 824.5 C826.55858949 828.35122216 830.67102171 832.64663131 834.86499023 836.88452148 C838.41457818 840.45698233 842.03157879 843.84604401 845.87890625 847.09765625 C849.47814366 850.32570159 852.82668211 853.8077371 856.22509766 857.24462891 C859.0475639 860.086724 861.87583732 862.84990122 864.9375 865.4375 C869.51036851 869.31133129 873.6440766 873.61928393 877.85595703 877.87548828 C881.48510627 881.52810817 885.18502366 885.00806779 889.11328125 888.33984375 C892.92322937 891.69228257 896.5500605 895.27853748 900 899 C900 899.33 900 899.66 900 900 C860.6440791 900.16022001 821.28820072 900.28356654 781.93201885 900.35745731 C777.28573338 900.36621226 772.63944857 900.37527251 767.99316406 900.38452148 C767.06817197 900.38635766 766.14317987 900.38819383 765.19015771 900.39008565 C750.21252056 900.42054537 735.23507147 900.47573762 720.25754589 900.54006957 C704.88935034 900.60552904 689.5212533 900.6444112 674.15292406 900.65861946 C664.66963267 900.66822467 655.18687283 900.69856152 645.70374507 900.75541527 C639.20089623 900.79241568 632.69832221 900.80360109 626.19537574 900.79450964 C622.44322634 900.79002562 618.69200576 900.79690026 614.94002151 900.83443832 C610.86968594 900.87486358 606.80132574 900.86091008 602.73083496 900.84178162 C601.54794372 900.86217151 600.36505248 900.8825614 599.14631605 900.90356916 C592.23663353 900.81568428 588.49081669 899.80939108 583.60760736 894.80072838 C583.07709693 894.20648802 582.5465865 893.61224765 582 893 C580.96320877 891.97421538 579.92240047 890.95244946 578.875 889.9375 C577.91471192 888.96025031 576.95638274 887.98107196 576 887 C572.75784773 883.71326813 569.52049017 880.49241664 566 877.5 C562.47922306 874.5073396 559.2445247 871.2846735 556 868 C552.77601913 864.73617385 549.56482153 861.53169859 546.0625 858.5625 C541.7213693 854.87389834 537.78165659 850.80756243 533.77978516 846.76025391 C530.33979512 843.29629877 526.81455056 840.02882616 523.08984375 836.87109375 C519.72503925 833.85849309 516.59454812 830.61427958 513.42163086 827.40209961 C510.69675921 824.65658173 507.94967675 822.00722524 505 819.5 C500.9104638 816.02389423 497.1903946 812.21750344 493.421875 808.40234375 C490.69691999 805.65674514 487.94976527 803.00730048 485 800.5 C480.9104638 797.02389423 477.1903946 793.21750344 473.421875 789.40234375 C470.69691999 786.65674514 467.94976527 784.00730048 465 781.5 C460.9104638 778.02389423 457.1903946 774.21750344 453.421875 770.40234375 C450.69691999 767.65674514 447.94976527 765.00730048 445 762.5 C441.47922306 759.5073396 438.2445247 756.2846735 435 753 C431.77601913 749.73617385 428.56482153 746.53169859 425.0625 743.5625 C420.7213693 739.87389834 416.78165659 735.80756243 412.77978516 731.76025391 C409.33979512 728.29629877 405.81455056 725.02882616 402.08984375 721.87109375 C398.72503925 718.85849309 395.59454812 715.61427958 392.42163086 712.40209961 C389.69675921 709.65658173 386.94967675 707.00722524 384 704.5 C379.9104638 701.02389423 376.1903946 697.21750344 372.421875 693.40234375 C369.69691999 690.65674514 366.94976527 688.00730048 364 685.5 C359.9104638 682.02389423 356.1903946 678.21750344 352.421875 674.40234375 C349.69691999 671.65674514 346.94976527 669.00730048 344 666.5 C339.9104638 663.02389423 336.1903946 659.21750344 332.421875 655.40234375 C329.69691999 652.65674514 326.94976527 650.00730048 324 647.5 C320.47922306 644.5073396 317.2445247 641.2846735 314 638 C310.77601913 634.73617385 307.56482153 631.53169859 304.0625 628.5625 C299.7213693 624.87389834 295.78165659 620.80756243 291.77978516 616.76025391 C288.33979512 613.29629877 284.81455056 610.02882616 281.08984375 606.87109375 C277.72426936 603.85780378 274.59310392 600.6127901 271.41943359 597.39990234 C268.71571251 594.6757179 265.99250269 592.04649806 263.0625 589.5625 C241.2260891 570.76775133 224.61266045 546.9410396 222.1875 517.5390625 C221.57468773 506.90947314 223.6261788 496.69215529 228 487 C228.59748047 485.66388672 228.59748047 485.66388672 229.20703125 484.30078125 C238.97419842 464.56941471 258.58981625 451.77424369 278.94439983 444.8540144 C279.99249687 444.50922527 279.99249687 444.50922527 281.06176758 444.1574707 C281.82967275 443.90375104 282.59757792 443.65003138 283.38875294 443.38862324 C293.6080199 440.07797412 304.00045987 437.39598149 314.38671875 434.66796875 C316.63515545 434.07278634 318.88344815 433.4770597 321.13160706 432.88082886 C325.87153986 431.62477267 330.6123386 430.37206379 335.35388184 429.12210083 C342.73801474 427.17521303 350.11973638 425.21929712 357.50097656 423.26147461 C366.04881886 420.99459505 374.5969052 418.72864633 383.14561272 416.46503162 C399.8933017 412.03032297 416.63981255 407.59146759 433.37271118 403.10122681 C435.91950202 402.41810766 438.4672839 401.7391175 441.01571655 401.06210327 C457.57721933 396.66177818 474.13290956 392.22881816 489.625 384.75 C490.80473389 384.18321533 490.80473389 384.18321533 492.00830078 383.60498047 C504.99788802 377.1955928 516.30981142 368.71380133 527 359 C527.87269531 358.21109375 528.74539063 357.4221875 529.64453125 356.609375 C547.08920756 340.01632855 557.60537214 318.95858538 564 296 C564.19352051 295.31067383 564.38704102 294.62134766 564.58642578 293.91113281 C570.0381531 273.28100516 568.74681054 248.38535834 563 228 C562.81808105 227.32630371 562.63616211 226.65260742 562.44873047 225.95849609 C554.44094001 196.96872026 533.55730441 173.14772012 507.90673828 158.07470703 C493.24653843 149.8116853 477.52219189 144.14775415 461.0625 140.75 C460.33764404 140.59885742 459.61278809 140.44771484 458.8659668 140.29199219 C443.80974455 137.42043629 428.60238878 136.70172672 413.31477356 136.7215271 C411.51645923 136.71650873 409.71814715 136.71062851 407.91983813 136.70397437 C403.03727403 136.68834659 398.15476772 136.68475332 393.27218163 136.68332577 C387.98478796 136.67960123 382.69742491 136.66443092 377.41004944 136.65071106 C368.26886637 136.62852953 359.12769433 136.61346173 349.98649025 136.60334396 C336.77014701 136.58870524 323.55384221 136.56315412 310.33752163 136.53501268 C288.8904706 136.48963864 267.44341401 136.45298519 245.99633789 136.421875 C225.17308578 136.39165089 204.34984724 136.35728297 183.52661133 136.31738281 C182.24122098 136.31492126 180.95583064 136.31245972 179.63148908 136.30992357 C173.18251222 136.29754822 166.73353552 136.28509183 160.28455889 136.27259517 C106.85638868 136.16916806 53.42820898 136.08153588 0 136 C0 91.12 0 46.24 0 0 Z " fill="#000000" transform="translate(450,450)"/>
</svg>
